!!!Melodie: Valet will ich dir geben
!!!Typ: Lied
**kern	**silbe	**silbe	**silbe	**silbe	**silbe	**silbe	**silbe	**silbe	**silbe	**silbe	**silbe	**silbe	**silbe	**silbe	**silbe	**silbe	**silbe	**silbe	**silbe	**silbe
*clefG2	*lang:DE	*lang:DE	*lang:DE	*lang:DE	*lang:DE	*lang:DE	*lang:DE	*lang:DE	*lang:DE	*lang:DE	*lang:DE	*lang:DE	*lang:DE	*lang:DE	*lang:DE	*lang:DE	*lang:DE	*lang:DE	*lang:DE	*lang:DE
*M4/4	*	*	*	*	*	*	*	*	*	*	*	*	*	*	*	*	*	*	*	*
*met(c)	*	*	*	*	*	*	*	*	*	*	*	*	*	*	*	*	*	*	*	*
4r	%	%	%	%	%	%	%	%	%	%	%	%	%	%	%	%	%	%	%	%
4g	Wie	O	Dein	und	Was	als	Ich	ich	Nichts,	als	Das	bei	Ihr	wie	Auch	Nein,	Was	der	Er	Mit
4g	soll	al#	Zi#	ich	hast	Leib	lag	stand	nichts	das	schreib	de#	dürft	ihr	dürft	Je#	fragt	Herr	kommt	Gnad’
4g	ich	#ler	#on	will	du	und	in	in	hat	Ge#	dir	#nen	euch	ihn	ihr	#sus	ihr	wird	zum	und
=	=	=	=	=	=	=	=	=	=	=	=	=	=	=	=	=	=	=	=	=
4a	dich	Welt	freut	dir	un#	See#	schwe#	Spott	dich	#lieb#	in	Gram	nicht	wol#	nicht	will	nach	sie	Welt#	sü#
4b	em#	Ver#	die	in	#ter#	#le	#ren	und	ge#	#te	dein	und	be#	#let	er#	sie	dem	zer#	#ge#	#ßem
4cc	#pfan#	#lan#	Pal#	Psal#	#las#	fas#	Ban#	Schan#	#trie#	lie#	Her#	Schmer#	#mü#	zie#	#schrek#	dek#	Schrei#	#streu#	#rich#	Lich#
4;cc	#gen	#gen,	#men	#men	#sen	#sen	#den;	#den;	#ben	#ben	#ze,	#ze	#hen,	#hen	#ken	#ken	#en	#en	#te,	#te
=	=	=	=	=	=	=	=	=	=	=	=	=	=	=	=	=	=	=	=	=
4r	%	%	%	%	%	%	%	%	%	%	%	%	%	%	%	%	%	%	%	%
4ee	und	O	und	er#	zu	an	du	du	zu	da#	du	sich	noch	mit	für	mit	der	in	zum	dem,
4dd	wie	mei#	grü#	#mun#	mei#	ih#	kommst	kommst	mir	#mit	hoch#	häuft	sor#	eu#	eu#	sei#	Feind	ei#	Fluch	der
4cc	be#	#ner	#ne	#tern	#nem	#rem	und	und	vom	du	#be#	je	#gen	#res	#rer	#ner	und	#nem	dem,	ihn
=	=	=	=	=	=	=	=	=	=	=	=	=	=	=	=	=	=	=	=	=
4cc	#gegn'	See#	Zwei#	mei#	Trost	größ#	machst	machst	Him#	al#	#trüb#	mehr	Tag	Ar#	Sün#	Lieb’	ih#	Au#	der	liebt
4b	ich	#len	#ge	#nen	und	#ten	mich	mich	#mels#	#le	#tes	und	und	#mes	#den#	und	#rer	#gen#	ihm	und
2;cc	dir?	Zier?	hin,	Sinn:	Freud’,	Leid?	los:	groß,	#zelt,	Welt	Heer,	mehr:	Nacht,	Macht:	#schuld,	Huld.	Tück’?	#blick	flucht;	sucht.
=:|	=	=	=	=	=	=	=	=	=	=	=	=	=	=	=	=	=	=	=	=
4r	.	%	.	%	.	%	.	%	.	%	.	%	.	%	.	%	.	%	.	%
8Lcc	.	O	.	Mein	.	Als	.	und	.	in	.	seid	.	er	.	Er	.	er	.	Ach
8Jdd	.	|	.	|	.	|	.	|	.	|	.	|	.	|	.	|	.	|	.	|
4ee	.	Je#	.	Her#	.	mir	.	hebst	.	ih#	.	un#	.	kommt,	.	kommt,	.	kommt,	.	komm,
4ee	.	#su,	.	#ze	.	das	.	mich	.	#ren	.	#ver#	.	er	.	er	.	er	.	ach
=	=	=	=	=	=	=	=	=	=	=	=	=	=	=	=	=	=	=	=	=
4dd	.	Je#	.	soll	.	Reich	.	hoch	.	tau#	.	#zagt,	.	kommt	.	kommt	.	kommt	.	komm,
4dd	.	#su,	.	dir	.	ge#	.	zu	.	#send	.	ihr	.	mit	.	den	.	ein	.	O
(8Lcc	.	set#	.	grü#	.	#nom#	.	Eh#	.	Pla#	.	ha#	.	Wil#	.	Sün#	.	Kö#	.	Son#
8Jb	.	|	.	|	.	|	.	|	.	|	.	|	.	|	.	|	.	|	.	|
4a)	.	|	.	|	.	|	.	|	.	|	.	|	.	|	.	|	.	|	.	|
=	=	=	=	=	=	=	=	=	=	=	=	=	=	=	=	=	=	=	=	=
4;g	.	#ze	.	#nen	.	#men,	.	#ren	.	#gen	.	#bet	.	#len,	.	#dern	.	#nig,	.	#ne!
4b	.	mir	.	in	.	da	.	und	.	und	.	die	.	ist	.	zu	.	dem	.	Und
4cc	.	selbst	.	ste#	.	Fried’	.	schenkst	.	gro#	.	Hil#	.	vol#	.	Trost	.	wahr#	.	hol’
4b	.	die	.	#tem	.	und	.	mir	.	#ßer	.	#fe	.	#ler	.	und	.	#lich	.	uns
=	=	=	=	=	=	=	=	=	=	=	=	=	=	=	=	=	=	=	=	=
4a	.	Fak#	.	Lob	.	Freu#	.	gro#	.	Jam#	.	vor	.	Lieb’	.	wah#	.	al#	.	all#
8La	.	#kel	.	und	.	#de	.	#ßes	.	#mer#	.	der	.	und	.	#rem	.	#le	.	#zu#
8Jg	.	|	.	|	.	|	.	|	.	|	.	|	.	|	.	|	.	|	.	|
4;g	.	bei,	.	Preis	.	lacht,	.	Gut,	.	#last,	.	Tür:	.	Lust,	.	Heil,	.	Feind’	.	#mal
4g	.	da#	.	und	.	da	.	das	.	die	.	der	.	all	.	schafft,	.	auf	.	zum
=	=	=	=	=	=	=	=	=	=	=	=	=	=	=	=	=	=	=	=	=
4e	.	#mit,	.	dei#	.	bist	.	sich	.	kein	.	eu#	.	Angst	.	dass	.	Er#	.	ew#
4g	.	was	.	#nem	.	du,	.	nicht	.	Mund	.	#re	.	und	.	bei	.	#den	.	#'gen
4a	.	dich	.	Na#	.	mein	.	lässt	.	kann	.	Her#	.	Not	.	Got#	.	viel	.	Licht
4g	.	er#	.	#men	.	Heil,	.	ver#	.	auf#	.	#zen	.	zu	.	#tes	.	zu	.	und
=	=	=	=	=	=	=	=	=	=	=	=	=	=	=	=	=	=	=	=	=
(8Lf	.	#göt#	.	die#	.	‘kom#	.	#zeh#	.	#sa#	.	la#	.	stil#	.	Kin#	.	we#	.	Won#
8Je	.	|	.	|	.	|	.	|	.	|	.	|	.	|	.	|	.	|	.	|
8Lf	.	|	.	|	.	|	.	|	.	|	.	|	.	|	.	|	.	|	.	|
8Jg)	.	|	.	|	.	|	.	|	.	|	.	|	.	|	.	|	.	|	.	|
4;e	.	#ze,	.	#nen	.	#men,	.	#ren,	.	#gen,	.	#bet,	.	#len,	.	#dern	.	#nig	.	#ne
4g	.	mir	.	so	.	und	.	wie	.	so	.	und	.	die	.	ver#	.	zum	.	in
=	=	=	=	=	=	=	=	=	=	=	=	=	=	=	=	=	=	=	=	=
4a	.	kund	.	gut	.	hast	.	ir#	.	fest	.	trö#	.	ihm	.	#bleib	.	Wi#	.	dei#
4cc	.	und	.	es	.	mich	.	#gend'	.	um#	.	#stet,	.	an	.	ihr	.	#der#	.	#nen
4cc	.	wis#	.	kann	.	froh	.	Reich#	.	#fan#	.	steht	.	euch	.	Erb’	.	#stan#	.	Freu#
4a	.	#send	.	und	.	ge#	.	#tum	.	#gen	.	all#	.	be#	.	und	.	#de	.	#den#
=	=	=	=	=	=	=	=	=	=	=	=	=	=	=	=	=	=	=	=	=
1;cc	.	sei.	.	weiß.	.	#macht.	.	tut.	.	hast.	.	#hier.	.	#wusst.	.	Teil.	.	seid.	.	#saal.
==	==	==	==	==	==	==	==	==	==	==	==	==	==	==	==	==	==	==	==	==
*-	*-	*-	*-	*-	*-	*-	*-	*-	*-	*-	*-	*-	*-	*-	*-	*-	*-	*-	*-	*-
